X: 25148
T: Mairtin O'Connor's Flying Clog
R: reel
M: 4/4
K: Gmajor
|:G2 (3GGG dGBd|(cBc)e dBAB|G2 (3GGG BGAB|(cE) (3EEE GEDE|
G2 (3GGG dGBd|(cBc)e dBAB|(cE) (3EEE GECE|1 DFAc BcAB:|2 DFAc BGGA||
|:(Bd) (3ddd edgd|edgd egdc|(Bd) (3ddd edgd|eaag fedc|
BcdB ~c3 E|(3EEE (cE) DGBG|(cE) (3EEE GECE|1 DFAc BGGA:|2 DFAc BcAB||

